static/images/mobile/copyright/wikipedia-wordmark-ace.svg

<?xml version="1.0" encoding="UTF-8"?>
<svg width="120px" height="18px" viewBox="0 0 120 18" version="1.1" xmlns="http://www.w3.org/2000/svg" xmlns:xlink="http://www.w3.org/1999/xlink">
    <title>ace-wordmark</title>
    <g id="Page-1" stroke="none" stroke-width="1" fill="none" fill-rule="evenodd">
        <path d="M18.1347955,0.285843195 C18.2037653,0.285923916 18.2719822,0.286011261 18.3392401,0.286103988 L18.7296301,0.286714988 C18.7922274,0.286824273 18.8534533,0.286936455 18.9131018,0.287050293 L19.2504138,0.287743257 C19.3029278,0.287858751 19.353452,0.287973417 19.4017803,0.288086014 L19.66375,0.288726819 C19.70247,0.288826169 19.7385819,0.288920965 19.7718793,0.289009965 L20.0344947,0.289755088 L20.0920418,0.343263867 L20.0920418,0.844025274 C20.0920418,0.98234042 20.0143027,1.05099319 19.8608435,1.05099319 C19.1076822,1.08632918 18.9532135,1.16103955 18.6775928,1.5578122 C18.5271624,1.77487611 18.2303402,2.24030153 17.9224123,2.76226453 L15.2792805,7.70526422 C15.2792805,7.70526422 15.2534608,7.75920281 15.2055156,7.85916696 L18.4352889,14.4695816 L18.6311512,14.5230904 L23.7195332,2.44726945 C23.8962132,1.96064244 23.868954,1.61535938 23.6417941,1.41242985 C23.4136245,1.21454833 23.2530982,1.09743478 22.663492,1.07320439 L22.1859514,1.04897399 C22.1273946,1.04897399 22.0718667,1.0277724 22.0183579,0.988398018 C21.9658587,0.951042832 21.9385995,0.901572451 21.9385995,0.842006074 L21.9385995,0.339225469 L22.0112907,0.287735889 L27.7599509,0.287735889 L27.8185076,0.339225469 L27.8185076,0.842006074 C27.8185076,0.978302022 27.7407685,1.0469548 27.5873093,1.0469548 C26.834148,1.08027158 26.2758394,1.24382672 25.9144028,1.53560101 C25.5519565,1.82939449 25.2692686,2.23424394 25.0663391,2.76024533 C25.0663391,2.76024533 23.2730636,6.86485382 21.5268975,10.8366823 L21.2588765,11.4461138 C20.2793156,13.6726641 19.3447779,15.7878142 18.7856199,17.0309358 C18.172793,18.198033 17.570062,18.0910154 17.0400222,16.997619 C16.4029127,15.6854837 15.1074253,12.8548947 14.1091215,10.6587956 L14.3201609,11.6457315 L14.2929017,11.9122658 C14.2727097,11.9768802 14.1323753,12.0384657 14.067761,12.0182738 L13.911273,12.1172145 C13.845649,12.0970225 13.6356523,11.8678434 13.6558443,11.8012098 L13.8896848,10.5861844 C12.816973,12.7971589 11.3992402,15.688089 10.6856023,17.0117534 C9.97080574,18.2545705 9.38220917,18.092025 8.91375495,17.0440606 C7.28728998,13.2065725 3.94753447,6.4685047 2.37558788,2.69260216 C2.08482319,1.99698803 1.86574008,1.550745 1.65877216,1.37406507 C1.45079464,1.19940434 1.01868601,1.09440598 0.36143666,1.05906999 C0.120142354,1.0328204 0,0.974263623 0,0.87936126 L0,0.353359863 L0.0585567774,0.301870283 C0.121508282,0.301513954 0.198678024,0.301199546 0.288175444,0.30092336 L0.591760176,0.300205769 C0.647891284,0.300104049 0.706631672,0.30001096 0.767745019,0.299926039 L4.08134423,0.299893673 C4.16258176,0.299946845 4.24288377,0.300001712 4.32201394,0.300057813 L5.39153862,0.300933994 C5.4530424,0.300990865 5.51219276,0.301046657 5.56875335,0.301100908 L6.30797836,0.301870283 L6.36653514,0.353359863 L6.36653514,0.85412127 C6.36653514,0.992436416 6.27869997,1.05906999 6.10605844,1.05906999 L5.45385709,1.08632918 C4.89453891,1.10954997 4.61487982,1.27714351 4.61487982,1.58709059 C4.61487982,1.73146333 4.67343659,1.96569044 4.80367494,2.28169512 C6.05557846,5.33169554 10.3796936,14.4493896 10.3796936,14.4493896 L10.5382007,14.4907832 L13.3252055,8.93056594 C12.9845879,8.17806007 12.7673967,7.69617782 12.7673967,7.69617782 L10.8511766,3.93037128 C10.8511766,3.93037128 10.4806535,3.17720997 10.3544536,2.92682927 C9.51244752,1.25796111 9.53062031,1.16911635 8.67952784,1.05705079 C8.44126234,1.0257532 8.31809118,0.995465215 8.31809118,0.877342061 L8.31809118,0.349321465 L8.38977276,0.297831885 L9.09272032,0.29712711 C9.15757625,0.297076555 9.22373943,0.297027944 9.29101335,0.296981204 L11.6527149,0.296017896 C11.720649,0.296003238 11.7875324,0.295989627 11.8531685,0.295976989 L13.348926,0.295812686 L13.480174,0.339225469 L13.480174,0.865226865 C13.480174,0.985369219 13.394358,1.0469548 13.2196973,1.0469548 L12.8602798,1.09844438 C11.9516402,1.16911635 12.1000513,1.540649 12.7037919,2.74308214 L14.542,6.504 L16.5756064,2.44928865 C16.8931591,1.75670332 16.8536456,1.54870785 16.7328688,1.38451016 L16.7058447,1.34983468 C16.6250768,1.25291312 16.3545041,1.09844438 15.7659075,1.07421398 L15.5347092,1.04897399 C15.4761524,1.04897399 15.421634,1.028782 15.3681253,0.989407617 C15.3156261,0.952052432 15.2893765,0.903591651 15.2893765,0.842006074 L15.2893765,0.341244668 L15.3610581,0.289755088 C15.6589248,0.287666261 16.0335883,0.286441777 16.44052,0.28581339 Z M31.6519574,5.55077865 L31.678207,5.60327783 L31.678207,6.18076881 C31.678207,6.25951758 31.6257078,6.31201676 31.5207094,6.31201676 L30.969468,6.36552554 C30.1557307,6.44326471 29.8669853,6.65427103 29.8669853,7.18027242 L29.8669853,15.9213858 C29.8669853,16.4988768 30.1294811,16.8401215 30.969468,16.9188703 L31.5207094,16.972379 C31.5994582,16.972379 31.678207,17.0238686 31.678207,17.128867 L31.678207,17.6801084 L31.6519574,17.7336171 C31.6519574,17.7336171 29.8342275,17.6848622 28.9612388,17.68043 L28.8432512,17.6801084 C28.1082627,17.6801084 26.0607947,17.7336171 26.0607947,17.7336171 L26.0082955,17.6801084 L26.0082955,17.128867 C26.0082955,17.0238686 26.0870443,16.972379 26.1920427,16.972379 L26.7170345,16.9188703 C27.5832709,16.8401215 27.8457668,16.4201281 27.8457668,15.9213858 L27.8457668,7.18027242 C27.8457668,6.60379105 27.5297622,6.44427431 26.7170345,6.36754474 L26.1920427,6.31302636 C26.0870443,6.31302636 26.0082955,6.28879597 26.0082955,6.208028 L26.0082955,5.60327783 L26.0345451,5.55077865 C26.0345451,5.55077865 28.1082627,5.60327783 28.922,5.60327783 C29.6307389,5.60327783 31.6519574,5.55077865 31.6519574,5.55077865 Z M37.6136431,15.9213858 C37.6136431,16.4988768 37.9548877,16.7876223 38.7161258,16.9188703 L39.0048713,16.972379 C39.0836201,16.997619 39.1623689,17.0238686 39.1623689,17.128867 L39.1623689,17.6801084 L39.1361193,17.7336171 C39.1361193,17.7336171 37.4823951,17.6801084 36.6949074,17.6801084 C35.9599189,17.6801084 33.8074525,17.7336171 33.8074525,17.7336171 L33.7549533,17.6801084 L33.7549533,17.128867 C33.7549533,17.0238686 33.8337021,16.972379 33.9387005,16.972379 L34.4636923,16.9188703 C35.25118,16.8401215 35.5924246,16.4201281 35.5924246,15.9213858 L35.5924246,7.18027242 C35.5924246,6.60379105 35.3036791,6.44427431 34.4636923,6.36754474 L33.9387005,6.31302636 C33.8337021,6.31302636 33.7549533,6.28879597 33.7549533,6.208028 L33.7549533,5.60327783 L33.7812029,5.55077865 C33.7812029,5.55077865 35.9336693,5.60327783 36.7474066,5.60327783 C37.4834047,5.60327783 39.1361193,5.55077865 39.1361193,5.55077865 L39.1623689,5.60327783 L39.1623689,6.18076881 C39.1623689,6.25951758 39.1098697,6.28576717 39.0048713,6.31201676 L38.7161258,6.36552554 C37.9023885,6.52201348 37.6136431,6.65427103 37.6136431,7.18027242 L37.6136431,11.1439605 C38.4798795,11.1439605 38.9786217,10.6987271 40.1336037,9.46398674 C41.1835873,8.30799519 41.9973246,7.33877956 41.9973246,6.83902776 C41.9973246,6.62802144 41.7610783,6.39278473 41.2360865,6.31302636 C41.1310881,6.28778637 41.0785889,6.26052718 41.0785889,6.18177841 L41.0785889,5.57702824 L41.1048385,5.55178825 C41.1048385,5.55178825 43.2310553,5.60428743 43.9922934,5.60428743 C44.6747827,5.60428743 45.8297647,5.55178825 45.8297647,5.55178825 L45.9085134,5.57702824 L45.9085134,6.18177841 C45.9085134,6.26052718 45.8297647,6.31302636 45.6985167,6.31302636 C44.6747827,6.39177513 43.9660438,6.44427431 43.0210586,7.52050749 L40.7635938,10.1182073 C40.3173508,10.5917095 40.1598533,10.8794454 40.1598533,11.0904517 C40.1598533,11.2479493 40.2648516,11.3781876 40.3960996,11.5356851 L44.3597876,16.3131105 C44.6747827,16.6795952 45.3047729,16.8381023 45.8297647,16.942091 L45.9610126,16.967331 C46.0397614,16.9935806 46.1447598,17.0460798 46.1447598,17.1248286 L46.1447598,17.67607 L46.066011,17.7023196 C46.066011,17.7023196 44.6747827,17.67607 43.9397942,17.67607 C43.2835545,17.67607 42.3385692,17.7023196 42.3385692,17.7023196 L42.3123196,17.67607 L42.3123196,17.3610749 C42.3123196,17.0188206 42.28607,16.7320943 41.9185758,16.3121009 L39.0048713,12.6886479 C38.6111275,12.1626465 38.191134,12.0334177 37.6136431,12.0334177 L37.6136431,15.9213858 L37.6136431,15.9213858 L37.6136431,15.9213858 Z M51.7652008,15.9213858 C51.7652008,16.4988768 52.0276967,16.8401215 52.8676836,16.9188703 L53.4189249,16.972379 C53.4976737,16.972379 53.5764225,17.0238686 53.5764225,17.128867 L53.5764225,17.6801084 L53.5501729,17.7336171 C53.5501729,17.7336171 51.5552041,17.6801084 50.7414668,17.6801084 C50.0064783,17.6801084 47.9590103,17.7336171 47.9590103,17.7336171 L47.9065111,17.6801084 L47.9065111,17.128867 C47.9065111,17.0238686 47.9852598,16.972379 48.0902582,16.972379 L48.61525,16.9188703 C49.4814865,16.8401215 49.7439824,16.4201281 49.7439824,15.9213858 L49.7439824,7.18027242 C49.7439824,6.60379105 49.4289873,6.44427431 48.61525,6.36754474 L48.0902582,6.31302636 C47.9852598,6.31302636 47.9065111,6.28879597 47.9065111,6.208028 L47.9065111,5.60327783 L47.9327607,5.55077865 C47.9327607,5.55077865 50.0064783,5.60327783 50.8202155,5.60327783 C51.5289545,5.60327783 53.5501729,5.55077865 53.5501729,5.55077865 L53.5764225,5.60327783 L53.5764225,6.18076881 C53.5764225,6.25951758 53.5239233,6.31201676 53.4189249,6.31201676 L52.8676836,6.36552554 C52.0539463,6.44326471 51.7652008,6.65427103 51.7652008,7.18027242 L51.7652008,15.9213858 L51.7652008,15.9213858 Z M57.4371314,7.231762 C57.4371314,6.41802472 57.0958867,6.39177513 55.862156,6.31302636 C55.7046585,6.31302636 55.6784089,6.23528719 55.6784089,6.18177841 L55.6784089,5.57803784 L55.7309081,5.55178825 C56.1246519,5.55178825 57.6733777,5.60428743 58.4346158,5.60428743 C59.1696043,5.60428743 60.2195879,5.55178825 61.1908227,5.55178825 C64.9162453,5.55178825 65.5987346,7.38824994 65.5987346,8.75524781 C65.5987346,10.3312328 64.8374965,12.7976847 61.112074,12.7976847 C60.4558342,12.7976847 59.9308424,12.7441759 59.4573402,12.5351888 L59.4573402,16.0506146 C59.4573402,16.6281056 59.7723353,16.7603631 60.6133318,16.8906015 L61.1393332,16.9693502 C61.2443315,16.9955998 61.3230803,17.022859 61.3230803,17.1268478 L61.3230803,17.6780892 L61.2978403,17.7305883 C61.2978403,17.7305883 59.1978731,17.6780892 58.3841358,17.6780892 C57.6491473,17.6780892 55.6804281,17.7305883 55.6804281,17.7305883 L55.6541785,17.6780892 L55.6541785,17.1268478 C55.6541785,17.0218494 55.7066777,16.9955998 55.811676,16.9693502 L56.3629174,16.8906015 C57.1766547,16.7856031 57.4391506,16.5493568 57.4391506,16.0506146 L57.4371314,7.231762 L57.4371314,7.231762 L57.4371314,7.231762 Z M59.4583498,11.8002002 C59.9833416,12.0112066 60.6395814,12.0364465 61.1645731,12.0364465 C62.7405581,12.0364465 63.4987674,11.0894421 63.4987674,9.07024289 C63.4987674,6.81277817 62.4750334,6.31403596 61.0333252,6.31403596 C59.7723353,6.31403596 59.4573402,6.55028227 59.4573402,7.2327716 L59.4583498,11.8002002 L59.4583498,11.8002002 L59.4583498,11.8002002 Z M72.0823621,-1.77635684e-15 C71.18913,-1.77635684e-15 70.5888352,0.473370969 70.3786628,0.630999756 L70.3155628,0.914949646 L73.3128117,3.78599854 C73.7331554,4.18007555 73.9123816,4.29079834 74.0700114,4.29079834 C74.2801827,4.29079834 74.4801612,4.13819736 74.4801612,4.00684845 C74.4801612,3.82293979 74.4537703,3.63856671 74.3224113,3.37584869 L72.492512,0.0630999756 C72.3874258,0.0368503858 72.2137201,-1.77635684e-15 72.0823621,-1.77635684e-15 Z M67.5709875,5.55279785 L67.5394375,5.61589783 L67.5394375,6.18379761 C67.5394375,6.2100472 67.5396899,6.25224846 67.6971874,6.27839709 L68.2966372,6.34149707 C69.0316247,6.39399625 69.3377868,6.55805618 69.3377868,7.16179675 L69.3377868,16.0904433 C69.3377868,16.6154351 69.1103735,16.8319942 68.2966372,16.910743 L67.6971874,16.973843 C67.5659395,16.973843 67.5394375,17.0475437 67.5394375,17.1000429 L67.5394375,17.6679427 L67.5709875,17.7310427 L70.1580865,17.6679427 L77.0990838,17.6679427 C77.151583,16.8279558 77.3204385,15.7676238 77.6354336,14.4813939 L76.9728838,14.3867944 C76.5528914,15.7255235 75.9870088,16.7845935 74.3857848,16.7845935 L72.1141857,16.7845935 C71.6416941,16.7845935 71.356986,16.652336 71.356986,16.1535938 L71.356986,11.7681454 L73.3446352,11.7681454 C74.0271236,11.7681454 74.2492365,12.0634533 74.3542348,12.5884451 L74.4804348,13.1563449 C74.4804348,13.2350937 74.5384868,13.2825449 74.6697347,13.2825449 L75.1114346,13.2825449 L75.1745345,13.2510454 C75.1220354,12.6473048 75.0167846,12.0773858 75.0167846,11.4211461 C75.0167846,10.7911559 75.1220354,10.0740878 75.1745345,9.49659681 C75.1745345,9.44409763 75.1639337,9.40199732 75.1114346,9.40199732 L74.6697347,9.40199732 C74.5647364,9.40199732 74.5119848,9.44944851 74.5119848,9.52819728 L74.3542348,10.0959961 C74.2492365,10.6209879 74.0796227,10.9162958 73.3446352,10.9162958 L71.356986,10.9162958 L71.356986,7.03564728 C71.356986,6.58940425 71.6154445,6.49929749 72.1141857,6.49929749 L74.2280349,6.49929749 C75.9080066,6.49929749 76.3948881,7.88901135 76.657384,8.83399658 L77.3199337,8.7393971 C77.1361866,7.74191269 76.9991334,6.74468067 76.9728838,5.61594831 L72.0826357,5.61594831 L70.1896365,5.61594831 L67.5709875,5.55279785 Z M79.9915867,16.972379 L80.5953272,16.9188703 C81.3838245,16.8401215 81.6463204,16.6038752 81.6463204,15.7911475 L81.6463204,7.12878284 C81.6463204,6.44427431 81.4605541,6.44427431 80.5953272,6.36754474 L80.0198555,6.31302636 C79.9148571,6.31302636 79.8340891,6.26052718 79.8340891,6.18177841 L79.8340891,5.60428743 L79.8593291,5.55178825 C79.8593291,5.55178825 82.1703026,5.60428743 82.6438048,5.60428743 C83.1405279,5.60428743 85.4262614,5.55178825 86.1087507,5.55178825 C90.4924322,5.55178825 92.6459082,8.2817456 92.6459082,11.772941 C92.6459082,16.3676289 89.3899494,17.7305883 86.4772546,17.7305883 C84.3772874,17.7305883 83.4595613,17.6780892 82.645824,17.6780892 C81.8573267,17.6780892 79.8623579,17.7305883 79.8623579,17.7305883 L79.8361083,17.6780892 L79.8361083,17.1268478 C79.8340891,17.0511278 79.8875979,16.972379 79.9915867,16.972379 L79.9915867,16.972379 Z M85.8462548,16.972379 C88.7327001,16.972379 90.3621939,15.8971555 90.3621939,12.2201937 C90.3621939,9.49124593 89.7574437,6.31302636 85.3475126,6.31302636 C84.3237786,6.31302636 83.6675388,6.4705239 83.6675388,7.12878284 L83.6675388,15.7911475 C83.6675388,16.5241168 83.8502764,16.972379 85.8462548,16.972379 Z M98.8428306,15.9213858 C98.8428306,16.4988768 99.1053265,16.8401215 99.9453134,16.9188703 L100.496555,16.972379 C100.575304,16.972379 100.654052,17.0238686 100.654052,17.128867 L100.654052,17.6801084 L100.627803,17.7336171 C100.627803,17.7336171 98.6328339,17.6801084 97.8201062,17.6801084 C97.0841081,17.6801084 95.0376497,17.7336171 95.0376497,17.7336171 L94.9841409,17.6801084 L94.9841409,17.128867 C94.9841409,17.0238686 95.0628896,16.972379 95.167888,16.972379 L95.6938894,16.9188703 C96.5591163,16.8401215 96.8226218,16.4201281 96.8226218,15.9213858 L96.8226218,7.18027242 C96.8226218,6.60379105 96.5066171,6.44427431 95.6938894,6.36754474 L95.167888,6.31302636 C95.0628896,6.31302636 94.9841409,6.28879597 94.9841409,6.208028 L94.9841409,5.60327783 L95.0103905,5.55077865 C95.0103905,5.55077865 97.0841081,5.60327783 97.8958261,5.60327783 C98.6045651,5.60327783 100.626793,5.55077865 100.626793,5.55077865 L100.652033,5.60327783 L100.652033,6.18076881 C100.652033,6.25951758 100.598524,6.31201676 100.494536,6.31201676 L99.9432942,6.36552554 C99.1295569,6.44326471 98.8408114,6.65427103 98.8408114,7.18027242 L98.8428306,15.9213858 L98.8428306,15.9213858 L98.8428306,15.9213858 Z M106.929723,16.9188703 L107.690962,16.972379 C107.79596,16.972379 107.900958,17.0511278 107.900958,17.1813662 L107.900958,17.6801084 L107.848459,17.7336171 C107.848459,17.7336171 104.987254,17.6801084 104.357264,17.6801084 C103.673765,17.6801084 101.993791,17.7336171 101.993791,17.7336171 L101.940282,17.6801084 L101.940282,17.1813662 C101.940282,17.0511278 102.019031,16.972379 102.151289,16.972379 C103.30728,16.8936303 103.961501,16.6826239 104.696489,15.0026502 L110.522888,1.35185388 C110.810624,0.669364541 111.021631,0.405859043 111.416384,0.405859043 C111.782869,0.405859043 111.915126,0.669364541 112.124113,1.19435634 L117.505279,15.421634 C117.873783,16.4463776 118.398775,16.8391119 119.448759,16.9441102 L119.737504,16.9693502 C119.868752,16.9693502 120,17.048099 120,17.1803566 L120,17.6780892 L119.921251,17.7305883 C119.921251,17.7305883 117.900033,17.6780892 116.876299,17.6780892 C115.957563,17.6780892 113.384094,17.7305883 113.384094,17.7305883 L113.358854,17.6780892 L113.358854,17.1803566 C113.358854,17.048099 113.411353,16.9693502 113.54462,16.9693502 L114.279609,16.9168511 C115.276083,16.8391119 115.645597,16.5220976 115.382091,15.7881187 L113.780866,11.3509284 L108.320952,11.3509284 C107.690962,11.3509284 107.533464,11.4559268 107.403226,11.7961618 L105.87974,15.603362 C105.617244,16.2616209 105.958489,16.8401215 106.929723,16.9188703 L106.929723,16.9188703 Z M113.360873,10.2494552 L110.814663,3.24182435 L110.762164,3.24182435 L108.137205,9.90922017 C108.032206,10.1727257 108.214944,10.2504648 108.792435,10.2504648 L113.360873,10.2504648 L113.360873,10.2494552 Z" id="ace-wordmark" fill="#000000" fill-rule="nonzero"></path>
    </g>
</svg>

<svg xmlns="http://www.w3.org/2000/svg" width="120" height="18"><path fill="#000" fill-rule="nonzero" d="M18.135.286h.594l.184.001h.337l.152.001h.262l.108.001h.262l.058.054v.501c0 .138-.078.207-.231.207-.753.035-.908.11-1.183.507-.15.217-.448.682-.756 1.204L15.28 7.705l-.073.154 3.23 6.61.195.054L23.72 2.447c.176-.486.149-.832-.078-1.035-.228-.197-.389-.315-.979-.339l-.477-.024a.28.28 0 0 1-.168-.06.174.174 0 0 1-.08-.147V.339l.073-.051h5.749l.059.051v.503c0 .136-.078.205-.232.205-.753.033-1.311.197-1.673.489-.362.293-.645.698-.848 1.224 0 0-1.793 4.105-3.54 8.077l-.267.61a884.49 884.49 0 0 1-2.473 5.584c-.613 1.167-1.216 1.06-1.746-.033-.637-1.313-1.933-4.143-2.93-6.34l.21.988-.027.266c-.02.065-.16.126-.225.106l-.157.1c-.065-.021-.275-.25-.255-.317l.234-1.215c-1.073 2.211-2.49 5.102-3.204 6.426-.715 1.243-1.304 1.08-1.772.032C7.287 13.207 3.948 6.47 2.376 2.693c-.291-.696-.51-1.142-.717-1.319-.208-.175-.64-.28-1.298-.315C.121 1.033 0 .974 0 .88V.353L.059.302.289.3h.303L.768.3H5.392l.177.001h.739l.059.052v.501c0 .138-.088.205-.26.205l-.653.027c-.56.024-.84.191-.84.501 0 .144.06.379.19.695 1.252 3.05 5.576 12.167 5.576 12.167l.158.042 2.787-5.56-.558-1.235-1.916-3.766s-.37-.753-.497-1.003c-.842-1.669-.823-1.758-1.674-1.87-.239-.031-.362-.062-.362-.18V.35L8.39.298h.703L9.29.296l2.362-.001h1.696l.131.043v.526c0 .12-.086.182-.26.182l-.36.051c-.908.071-.76.443-.156 1.645l1.838 3.761 2.034-4.055c.317-.692.278-.9.157-1.064l-.027-.035c-.08-.097-.351-.252-.94-.276l-.231-.025a.276.276 0 0 1-.167-.06.172.172 0 0 1-.079-.147v-.5l.072-.052c.298-.002.673-.004 1.08-.004ZM31.652 5.55l.026.052v.578c0 .079-.052.131-.157.131l-.552.054c-.813.077-1.102.288-1.102.814v8.741c0 .578.262.92 1.102.998l.552.053c.078 0 .157.052.157.157v.551l-.026.054s-1.818-.05-2.69-.054h-.119c-.735 0-2.782.054-2.782.054l-.053-.054v-.551c0-.105.079-.157.184-.157l.525-.053c.866-.079 1.129-.499 1.129-.998v-8.74c0-.577-.316-.737-1.129-.813l-.525-.055c-.105 0-.184-.024-.184-.105v-.605l.027-.052s2.073.052 2.887.052c.709 0 2.73-.052 2.73-.052Zm5.962 10.37c0 .578.34.867 1.102.998l.289.053c.079.026.157.052.157.157v.551l-.026.054s-1.654-.054-2.441-.054c-.735 0-2.888.054-2.888.054l-.052-.054v-.551c0-.105.079-.157.184-.157l.525-.053c.787-.079 1.128-.499 1.128-.998v-8.74c0-.577-.288-.737-1.128-.813l-.525-.055c-.105 0-.184-.024-.184-.105v-.605l.026-.052s2.153.052 2.966.052c.736 0 2.39-.052 2.39-.052l.025.052v.578c0 .079-.052.105-.157.131l-.289.054c-.814.156-1.102.288-1.102.814v3.964c.866 0 1.365-.445 2.52-1.68 1.05-1.156 1.863-2.125 1.863-2.625 0-.211-.236-.446-.76-.526-.106-.025-.158-.052-.158-.131v-.605l.026-.025s2.126.052 2.887.052c.683 0 1.838-.052 1.838-.052l.079.025v.605c0 .079-.08.131-.21.131-1.024.079-1.733.131-2.678 1.208l-2.257 2.597c-.447.474-.604.761-.604.972 0 .158.105.288.236.446l3.964 4.777c.315.367.945.525 1.47.63l.131.024c.079.027.184.08.184.158v.551l-.079.026s-1.391-.026-2.126-.026c-.656 0-1.601.026-1.601.026l-.027-.026v-.315c0-.342-.026-.629-.393-1.049l-2.914-3.623c-.394-.526-.814-.656-1.391-.656v3.888Zm14.151 0c0 .578.263.92 1.103.998l.55.053c.08 0 .158.052.158.157v.551l-.026.054s-1.995-.054-2.809-.054c-.735 0-2.782.054-2.782.054l-.052-.054v-.551c0-.105.078-.157.183-.157l.525-.053c.866-.079 1.129-.499 1.129-.998v-8.74c0-.577-.315-.737-1.129-.813l-.525-.055c-.105 0-.183-.024-.183-.105v-.605l.026-.052s2.073.052 2.887.052c.709 0 2.73-.052 2.73-.052l.026.052v.578c0 .079-.052.131-.157.131l-.551.054c-.814.077-1.103.288-1.103.814v8.741Zm5.672-8.69c0-.813-.341-.84-1.575-.918-.157 0-.184-.078-.184-.131v-.604l.053-.026c.394 0 1.942.052 2.704.052.735 0 1.785-.052 2.756-.052 3.725 0 4.408 1.836 4.408 3.203 0 1.576-.762 4.043-4.487 4.043-.656 0-1.181-.054-1.655-.263v3.516c0 .577.315.71 1.156.84l.526.078c.105.027.184.054.184.158v.551l-.025.053s-2.1-.053-2.914-.053c-.735 0-2.704.053-2.704.053l-.026-.053v-.551c0-.105.053-.131.158-.158l.55-.078c.815-.105 1.077-.342 1.077-.84l-.002-8.82Zm2.021 4.57c.525.21 1.182.235 1.707.235 1.576 0 2.334-.947 2.334-2.966 0-2.257-1.024-2.756-2.466-2.756-1.26 0-1.576.236-1.576.919l.001 4.567ZM72.082 0c-.893 0-1.493.473-1.703.631l-.063.284 2.997 2.871c.42.394.6.505.757.505.21 0 .41-.153.41-.284 0-.184-.026-.368-.158-.631L72.492.063a1.92 1.92 0 0 0-.41-.063Zm-4.511 5.553-.032.063v.568c0 .026 0 .068.158.094l.6.063c.735.053 1.04.217 1.04.82v8.93c0 .524-.227.741-1.04.82l-.6.063c-.131 0-.158.074-.158.126v.568l.032.063 2.587-.063H77.1c.053-.84.221-1.9.536-3.187l-.662-.094c-.42 1.339-.986 2.398-2.587 2.398h-2.272c-.472 0-.757-.133-.757-.631v-4.386h1.988c.682 0 .904.295 1.01.82l.125.568c0 .08.058.127.19.127h.441l.064-.032c-.053-.604-.158-1.174-.158-1.83 0-.63.105-1.347.158-1.924 0-.053-.011-.095-.064-.095h-.441c-.105 0-.158.047-.158.126l-.158.568c-.105.525-.274.82-1.01.82h-1.987v-3.88c0-.447.258-.537.757-.537h2.114c1.68 0 2.167 1.39 2.43 2.335l.662-.095c-.184-.997-.32-1.994-.347-3.123H70.19l-2.619-.063Zm12.42 11.42.604-.054c.789-.079 1.051-.315 1.051-1.128V7.13c0-.685-.185-.685-1.05-.761l-.576-.055c-.105 0-.186-.052-.186-.131v-.578l.025-.052s2.311.052 2.785.052c.497 0 2.782-.052 3.465-.052 4.383 0 6.537 2.73 6.537 6.22 0 4.596-3.256 5.959-6.169 5.959-2.1 0-3.017-.053-3.831-.053-.789 0-2.784.053-2.784.053l-.026-.053v-.551a.148.148 0 0 1 .156-.155Zm5.855 0c2.887 0 4.516-1.076 4.516-4.753 0-2.729-.605-5.907-5.014-5.907-1.024 0-1.68.158-1.68.816v8.662c0 .733.182 1.181 2.178 1.181Zm12.997-1.052c0 .578.262.92 1.102.998l.552.053c.078 0 .157.052.157.157v.551l-.026.054s-1.995-.054-2.808-.054c-.736 0-2.782.054-2.782.054l-.054-.054v-.551c0-.105.079-.157.184-.157l.526-.053c.865-.079 1.129-.499 1.129-.998v-8.74c0-.577-.316-.737-1.13-.813l-.525-.055c-.105 0-.184-.024-.184-.105v-.605l.026-.052s2.074.052 2.886.052c.709 0 2.73-.052 2.73-.052l.026.052v.578c0 .079-.053.131-.157.131l-.552.054c-.813.077-1.102.288-1.102.814l.002 8.741Zm8.087.998.761.053c.105 0 .21.08.21.21v.498l-.053.054s-2.86-.054-3.49-.054c-.684 0-2.364.054-2.364.054l-.054-.054v-.499c0-.13.079-.209.211-.209 1.156-.078 1.81-.29 2.545-1.97l5.827-13.65c.288-.683.499-.946.893-.946.367 0 .5.263.708.788l5.381 14.228c.369 1.024.894 1.417 1.944 1.522l.289.025c.13 0 .262.08.262.211v.498l-.079.053s-2.021-.053-3.045-.053c-.918 0-3.492.053-3.492.053l-.025-.053v-.498c0-.132.052-.21.186-.21l.735-.053c.996-.078 1.366-.395 1.102-1.129l-1.601-4.437h-5.46c-.63 0-.788.105-.918.445l-1.523 3.807c-.263.659.078 1.237 1.05 1.316Zm6.43-6.67-2.545-7.007h-.053l-2.625 6.667c-.105.264.078.341.655.341h4.569Z"/></svg>
